icons/HSB-Collections/48x48/apps/i-nex.svg

<svg width="48" height="48" version="1.1" xmlns="http://www.w3.org/2000/svg">
 <rect x="4" y="5" width="40" height="40" rx="2" ry="2" style="opacity:.2"/>
 <path d="m6 4h36c1.108 0 2 0.892 2 2v36c0 1.108-0.892 2-2 2h-29l-1-0.5-7.5-7.5-0.5-1v-29c0-1.108 0.892-2 2-2z" style="fill:#2b855b"/>
 <path d="m6 4c-1.108 0-2 0.892-2 2v1c0-1.108 0.892-2 2-2h36c1.108 0 2 0.892 2 2v-1c0-1.108-0.892-2-2-2h-36z" style="fill:#ffffff;opacity:.1"/>
 <rect x="10" y="11" width="28" height="28" rx="1.4" ry="1.4" style="opacity:.2"/>
 <rect x="10" y="10" width="28" height="28" rx="1.4" ry="1.4" style="fill:#c1c1c1"/>
 <path d="m4 35v7c0 1.108 0.892 2 2 2h7z" style="fill:#ffb923"/>
 <path d="m11.400391 10c-0.7756 0-1.400391 0.624791-1.400391 1.400391v1c0-0.7756 0.624791-1.400391 1.400391-1.400391h25.199218c0.7756 0 1.400391 0.624791 1.400391 1.400391v-1c0-0.7756-0.624791-1.400391-1.400391-1.400391h-25.199218z" style="fill:#ffffff;opacity:.2"/>
 <rect x="22" y="21" width="4" height="13" style="fill:#4e4e4e"/>
 <rect x="22" y="14" width="4" height="4" style="fill:#4e4e4e"/>
</svg>

<svg xmlns="http://www.w3.org/2000/svg" width="48" height="48" version="1.1">
 <rect style="opacity:0.2" width="40" height="40" x="4" y="5" rx="2" ry="2"/>
 <path style="fill:#2b855b" d="m 6,4 h 36 c 1.108,0 2,0.892 2,2 v 36 c 0,1.108 -0.892,2 -2,2 H 12.293729 L 6.8250825,42.927393 C 5.737799,42.714136 6.0379089,42.487569 5.7326733,41.422442 L 4,35.376238 V 6 C 4,4.892 4.892,4 6,4 Z"/>
 <path style="opacity:0.1;fill:#ffffff" d="M 6 4 C 4.892 4 4 4.892 4 6 L 4 7 C 4 5.892 4.892 5 6 5 L 42 5 C 43.108 5 44 5.892 44 7 L 44 6 C 44 4.892 43.108 4 42 4 L 6 4 z"/>
 <rect style="opacity:0.2" width="28" height="28" x="10" y="11" rx="1.4" ry="1.4"/>
 <rect style="fill:#c1c1c1" width="28" height="28" x="10" y="10" rx="1.4" ry="1.4"/>
 <path style="fill:#ffb923" d="M 4,35.21875 V 42 c 0,1.108 0.892,2 2,2 h 6.78125 z"/>
 <path style="fill:#ffffff;opacity:0.2" d="M 11.400391 10 C 10.624791 10 10 10.624791 10 11.400391 L 10 12.400391 C 10 11.624791 10.624791 11 11.400391 11 L 36.599609 11 C 37.375209 11 38 11.624791 38 12.400391 L 38 11.400391 C 38 10.624791 37.375209 10 36.599609 10 L 11.400391 10 z"/>
 <path style="opacity:0.1" d="M 4 35.21875 L 4 36.21875 L 11.78125 44 L 12.78125 44 L 4 35.21875 z"/>
 <rect style="fill:#4e4e4e" width="4" height="13" x="22" y="21"/>
 <rect style="fill:#4e4e4e" width="4" height="4" x="22" y="14"/>
</svg>
